X:1
T:Packington, SM
T:Packington, SM
T:John Black (1817-1871)
T:Public Domain Courtesy of the Cyber Hymnal™
C:John Black (1817-1871)
Z:Public Domain
Z:Courtesy of the Cyber Hymnal™
%%score ( 1 2 ) ( 3 4 )
L:1/8
M:4/4
K:A
V:1 treble 
V:2 treble 
V:3 bass 
V:4 bass 
V:1
 [EA]2 | [Ee]2 [Gd]2 [Ac]2 [Fd]2 | [EB]6 [EG]2 | [EA]2 [EB]2 [Ec]2 [A^d]2 | [Ge]6 [Ed]2 | %5
 [Ec]2 [DB]2 [CA]2 E2 | [DF]2 (BA) [EG]2 [EB]2 | [Ee]2 ([CA][DB]) [Ec]2 [DB]2 | [CA]6 |] %9
V:2
 x2 | x8 | x8 | x8 | x8 | x6 E2 | x2 ^D2 x4 | x8 | x6 |] %9
V:3
 [A,C]2 | [G,B,]2 [E,B,]2 [F,A,]2 [B,,B,]2 | [E,G,]6 [D,B,]2 | [C,A,]2 [B,,G,]2 [A,,A,]2 [F,B,]2 | %4
 [E,B,]6 ([F,A,][G,B,]) | A,2 [E,G,]2 [F,A,]2 [C,A,]2 | [D,A,]2 [B,,B,]2 [E,B,]2 [D,G,]2 | %7
 [C,A,]2 [F,A,]2 [E,A,]2 [E,G,]2 | [A,,A,]6 |] %9
V:4
 x2 | x8 | x8 | x8 | x8 | A,2 x6 | x8 | x8 | x6 |] %9

